X: 3
T: The Waves Of Rush
R: reel
M: 4/4
L: 1/8
K: Emin
f|fgfe fgb2-|bgfd efBf|fgfe fgbf|gfdf e3:|
|:B|defB B2bf|gfeg fdeB|defB B2bf|gfdf e3:|
|:B|GABE EeBE|cEBe cABE|GABE eEBE|ABED E3:|
f|gBfB gBfB|gBfb gefB|gBBg fBBf|gfdf e3f|
gBfB gBfB|gBfb gefB|gB~B2 fB~B2|gfdf e3||


Tune 2531	Setting 2531

